src/actions/16/tab-detach.svg

<svg xmlns="http://www.w3.org/2000/svg" viewBox="0 0 16 16">
    <path d="M2 2v12h12V5H7V2H2zm6 0v2h5V2H8zM3 3h3v3h7v7H3V3z" style="fill:currentColor;fill-opacity:1;stroke:none;color:#050505;opacity:.7"/>
</svg>

<svg xmlns="http://www.w3.org/2000/svg" viewBox="0 0 16 16">
  <defs id="defs3051">
    <style type="text/css" id="current-color-scheme">
      .ColorScheme-Text {
        color:#363636;
      }
      </style>
  </defs>
 <path style="fill:currentColor;fill-opacity:1;stroke:none" 
     d="M 2 2 L 2 14 L 14 14 L 14 5 L 7 5 L 7 2 L 6 2 L 2 2 z M 8 2 L 8 4 L 13 4 L 13 2 L 8 2 z M 3 3 L 6 3 L 6 5 L 6 6 L 13 6 L 13 13 L 3 13 L 3 3 z "
     class="ColorScheme-Text"
     />
</svg>
